X:1
T:Title
%%score [ ( 1 2 ) ( 3 4 ) ] { ( 5 6 ) | 7 }
L:1/8
Q:1/4=120
M:4/4
K:C
V:1 treble nm="Midi_74"
V:2 treble 
V:3 bass nm="Midi_74"
V:4 bass 
V:5 treble nm="Org."
V:6 treble 
V:7 bass 
V:1
 (E6 F2) | G4 (F2 D2) | C8 || (c6 d2) | e4 (d2 B2) | c4 B4 | A8 || (A6 _B2) | c4 (_B2 G2) | F8 || %10
 (d6 e2) | f4"^William Henry Havergal\n(1793-1870)" (e2 d2) | c4 B4 | c8 |] %14
V:2
 C8 | D4 B,4 | C8 || G8 | G4 F4 | E4 (E2 D2) | C8 || F8 | G4 E4 | D8 || A8 | A4 F4 | E4 (F2 D2) | %13
 E8 |] %14
V:3
 G,8 | G,4 (G,2 F,2) | E,8 || (C6 B,2) | C4 A,4 | A,4 ^G,4 | A,8 || C8 | C4 (C2 _B,2) | A,8 || %10
 (D6 ^C2) | D4 A,4 | G,4 G,4 | G,8 |] %14
V:4
 C,8 | B,,4 G,,4 | A,,8 || (E,6 D,2) | C,4 D,4 | E,4 E,4 | A,,8 || F,8 | E,4 C,4 | D,8 || %10
 (F,6 E,2) | D,4 F,4 | G,4 G,4 | C,8 |] %14
V:5
 E6 F2 | G4 F2 D2 | C8 || c6 [Bd]2 | e4 d2 B2 | c4 [^GB]4 | A8 || A6 _B2 | c4 _B2 G2 | F8 || %10
 d6 [^ce]2 | f4 e2 d2 | c4 [DB]4 | c8 |] %14
V:6
 C8 | D4 B,4 | [A,C]8 || G8 | [Gc]4 [FA]4 | [EA]4 E2 D2 | C8 || F8 | G4 E4 | D8 || A8 | %11
 [Ad]4 [FA]4 | [EG]4 G2 F2 | [CE]8 |] %14
V:7
 C,8 | B,,4 G,,4 | A,,8 || E,6 D,2 | C,4 D,4 | E,4 E,4 | A,,8 || F,8 | E,4 C,4 | D,8 || F,6 E,2 | %11
 D,4 F,4 | G,4 G,4 | C,8 |] %14

